X: 13
T: JUBILEE ROUNDABOUT, first tune
C: Freda Burford, 1961
S: "Community Dances Manual 6", EFDSS, Jack Hamilton ed., 1981 p.9
R: reel
Z: 2010 John Chambers <jc:trillian.mit.edu>
M: 4/4
L: 1/8
K: G
"A"|: Bc |\
"G"d2B2 G2B2 | "G"d4 g2 | "G"d3B "C"cBAG | "A7"E4 "D7"D2EF |\
"G"G2A2 B2d2 | "C"e2d2 "G"B2G2 | "C"E2G2 "D"FGAF | "G"G4 z2 :|
"B"|: d2 |\
"G"gaba g2e2 | "G"d2e2 g2a2 | "Em"b3a g2e2 | "G"d2B2 "D"A2B2 |\
"G"G3A "D"B2d2 | "C"edcB "D"A2BA | "Em"G2E2 "C"G2A2 | "G"G4 z2 :|

%%sep 2 1 500
%%sep 1 1 500

